X:1
T:Title
%%score { ( 1 3 ) | ( 2 4 ) }
L:1/8
M:6/8
K:Ab
V:1 treble nm="Grand Piano"
V:3 treble 
V:2 bass 
V:4 bass 
V:1
 z3 z2[Q:1/4=100] E/E/ | [CE][_C=D][=CE] [_DF][CE][CA] | [DA]2 [DG] [DG]3 | [DF]3 [EG]2 [DF] | %4
[M:5/8] [CE]-[CE]- [CE]3 |[M:1/8] E/E/ |[M:3/4] [CE][_C=D] [=CE][_DF] [CE][CA] | z2 z B3 | %8
 [=Dc]3 [DB]2 D |[M:5/8] E-E- E3 |[M:1/8] E/E/ |[M:3/4] [DE][DF] [DG][DB] [Ec][DB] | %12
 [CA][_CG] [CF] [=CE]2 [CE]/E/ | FF [EF][=DF] [DG][DA] | [Ec]2 [=DB] [_DB]3 | [CA]3 [DF]2 [DG] | %16
[M:5/8] A-A- A3 |[M:1/8] [Ec] |[M:3/4] cB ce [Ec][GB] | A2 c F3 | G2 B F3 |[M:5/8] F2 A E2 | %22
[M:1/8] [Ec] |[M:3/4] cB ce c[DGB] | [CA]-[C_GA] [Fd] [Ec]3 | e-[Be-] [Ae]B, z2 | %26
[M:5/8] [CEA]-[CEA]- [CEA]3 |] %27
V:2
 z3 z2 C/C/ | A,,A,A, A,,A,A, | B,,E,E, E,,E,E, | E,,E,E, E,,E,E, |[M:5/8] A,,>E,F,/G,/ A,2 | %5
[M:1/8] C/C/ |[M:3/4] A,,A, A,A,, A,A, | B,,B, B,B,, A,G, | B,,F, G,A, G,[A,B,] | %9
[M:5/8] [E,G,B,]2 [E,A,] [E,B,]2 |[M:1/8] D/D/ |[M:3/4] E,,E, E,E,, E,F,/G,/ | z2 z2 z A, | %13
 [D,A,D][D,A,D] [C,=A,][B,,B,] [B,,B,][B,,F,] | E,,E, F,G, F,E, | F,,F, E,D, B,,E, | %16
[M:5/8] E,2 z z2 |[M:1/8] [A,,A,] |[M:3/4] [E,A,E][E,G,E] [E,A,E]B, z [E,D] | %19
 [F,CF]2 [F,A,F] [F,A,C]3 | [E,B,D]2 [E,G,D] [E,G,D]3 |[M:5/8] [A,D]2 [A,C] [A,C]2 | %22
[M:1/8] [A,,A,] |[M:3/4] [E,A,E][E,G,E] [E,A,E]B, E=E, | F,E, [D,A,] [A,,A,]3 | CD .C2 CD | %26
[M:5/8] A,,-A,,- A,,3 |] %27
V:3
 x6 | x6 | x6 | x6 |[M:5/8] x5 |[M:1/8] x |[M:3/4] x6 | [EA]2 [EG]G FE | x6 |[M:5/8] z2 C D2 | %10
[M:1/8] x |[M:3/4] x6 | x6 | x6 | x6 | x6 |[M:5/8] C2 D C2 |[M:1/8] x |[M:3/4] z2 z .G3 | x6 | x6 | %21
[M:5/8] x5 |[M:1/8] x |[M:3/4] z2 z .G3 | .F2 z2 z2 | .A2 z [EG]3 |[M:5/8] x5 |] %27
V:4
 x6 | x6 | x6 | x6 |[M:5/8] x5 |[M:1/8] x |[M:3/4] x6 | x6 | x6 |[M:5/8] x5 |[M:1/8] x | %11
[M:3/4] x6 | A,,=D, D,A,, .A,>C | x6 | x6 | x6 |[M:5/8] A,,2- [A,,-F,] [A,,E,]2 |[M:1/8] x | %18
[M:3/4] z2 z .E,3 | x6 | x6 |[M:5/8] x5 |[M:1/8] x |[M:3/4] z2 z .E,3 | x6 | E,3 E,3 |[M:5/8] x5 |] %27

